packages/elvis-assets-icons/icons/svg/src/power_outage-2.svg

<svg width="24" height="24" viewBox="0 0 24 24" fill="none" xmlns="http://www.w3.org/2000/svg">
<g clip-path="url(#clip0)">
<path d="M18.9706 10.6721L14.5194 10.707L17.4162 0L11.34 8.47493L16.6037 13.7064L18.9706 10.6721Z" fill="black"/>
<path d="M19.1356 19.6334C19.3358 19.4381 19.3368 19.1165 19.1378 18.9199L6.08394 6.01948C5.89207 5.82987 5.58437 5.82664 5.38856 6.01219L4.87577 6.49812C4.67039 6.69276 4.66729 7.01889 4.86895 7.21739L9.11697 11.3988L7.56928 13.7464L11.3399 14.0145L8.69839 24L14.3391 16.5953L17.911 20.1409C18.1048 20.3332 18.417 20.3345 18.6124 20.1439L19.1356 19.6334Z" fill="black"/>
</g>
<defs>
<clipPath id="clip0">
<path d="M0 0H24V24H0V0Z" fill="white"/>
</clipPath>
</defs>
</svg>

<svg width="24" height="24" fill="none" xmlns="http://www.w3.org/2000/svg"><g clip-path="url(#clip0)" fill="#000"><path d="M18.97 10.672l-4.45.035L17.415 0 11.34 8.475l5.264 5.231 2.367-3.034zM19.136 19.633a.5.5 0 00.002-.713L6.084 6.02a.5.5 0 00-.695-.008l-.513.486a.5.5 0 00-.007.72l4.248 4.18-1.548 2.348 3.77.268L8.7 24l5.64-7.405 3.572 3.546a.5.5 0 00.701.003l.524-.51z"/></g><defs><clipPath id="clip0"><path d="M0 0h24v24H0V0z" fill="#fff"/></clipPath></defs></svg>
